src/assets/filled/LockSlash.svg

<svg width="24" height="24" viewBox="0 0 24 24"  xmlns="http://www.w3.org/2000/svg">
<path d="M13.63 15.72C13.63 16.62 12.9 17.35 12 17.35C11.36 17.35 10.81 16.98 10.55 16.45L12.73 14.27C13.26 14.53 13.63 15.08 13.63 15.72Z" />
<path d="M21.7701 2.23C21.4701 1.93 20.9801 1.93 20.6801 2.23L17.8701 5.04C17.1001 3.02 15.1301 2 12.0001 2C6.37012 2 5.72012 5.58 5.72012 8.28V9.53C5.73012 9.53 5.74012 9.53 5.75012 9.53C2.92012 9.87 2.00012 11.28 2.00012 14.79V16.65C2.00012 18.25 2.19012 19.41 2.67012 20.24L2.22012 20.69C1.92012 20.99 1.92012 21.48 2.22012 21.78C2.38012 21.92 2.57012 22 2.77012 22C2.97012 22 3.16012 21.92 3.31012 21.77L21.7701 3.31C22.0801 3.01 22.0801 2.53 21.7701 2.23ZM7.35012 9.44C7.27012 9.44 7.20012 9.44 7.12012 9.44V8.28C7.12012 5.35 7.95012 3.4 12.0001 3.4C15.4001 3.4 16.4701 4.7 16.7701 6.15L13.4801 9.44H7.35012Z" />
<path d="M22.0001 14.79V16.65C22.0001 20.75 20.7501 22 16.6501 22H7.41005C6.52005 22 6.08005 20.92 6.71005 20.29L9.53005 17.47C9.60005 17.57 9.68005 17.66 9.76005 17.75C10.4601 18.51 11.5001 18.91 12.6501 18.67C12.7401 18.65 12.8301 18.63 12.9201 18.59C13.0101 18.57 13.0901 18.54 13.1701 18.5C13.3701 18.43 13.5601 18.32 13.7401 18.19C13.8101 18.15 13.8701 18.1 13.9201 18.05C14.0701 17.93 14.2101 17.79 14.3301 17.64C14.3801 17.59 14.4301 17.53 14.4701 17.46C14.6001 17.28 14.7101 17.09 14.7801 16.89C14.8201 16.81 14.8501 16.73 14.8701 16.64C14.9101 16.55 14.9301 16.46 14.9501 16.37C15.1901 15.22 14.7901 14.18 14.0301 13.48C13.9501 13.4 13.8501 13.32 13.7501 13.25L16.8701 10.13C16.9201 10.08 16.9601 10.04 17.0101 9.99998C17.4101 9.66998 17.9201 9.50998 18.4301 9.54998C18.5201 9.55998 18.6201 9.56998 18.7101 9.58998C18.8801 9.61998 19.0501 9.65998 19.2101 9.69998C19.3701 9.73998 19.5201 9.78998 19.6701 9.83998C19.9601 9.94998 20.2101 10.08 20.4401 10.23C20.6701 10.38 20.8601 10.56 21.0401 10.77C21.1301 10.88 21.2201 11 21.2901 11.13C21.3601 11.24 21.4201 11.36 21.4801 11.49C21.5401 11.62 21.5901 11.76 21.6401 11.9C21.7001 12.07 21.7501 12.26 21.7901 12.46C21.8301 12.6 21.8501 12.75 21.8801 12.91C21.9001 13.06 21.9201 13.22 21.9401 13.39C21.9801 13.81 22.0001 14.28 22.0001 14.79Z" />
</svg>

<?xml version="1.0" encoding="UTF-8"?>
<svg width="24" height="24" viewBox="0 0 24 24" xmlns="http://www.w3.org/2000/svg">
 <path d="m13.63 15.72c0 0.9-0.73 1.63-1.63 1.63-0.64 0-1.19-0.37-1.45-0.9l2.18-2.18c0.53 0.26 0.9 0.81 0.9 1.45z"/>
 <path d="m21.77 2.23c-0.3-0.3-0.79-0.3-1.09 0l-2.81 2.81c-0.77-2.02-2.74-3.04-5.87-3.04-5.63 0-6.28 3.58-6.28 6.28v1.25h0.03c-2.83 0.34-3.75 1.75-3.75 5.26v1.86c0 1.6 0.19 2.76 0.67 3.59l-0.45 0.45c-0.3 0.3-0.3 0.79 0 1.09 0.16 0.14 0.35 0.22 0.55 0.22s0.39-0.08 0.54-0.23l18.46-18.46c0.31-0.3 0.31-0.78 0-1.08zm-14.42 7.21h-0.23v-1.16c0-2.93 0.83-4.88 4.88-4.88 3.4 0 4.47 1.3 4.77 2.75l-3.29 3.29h-6.13z"/>
 <path d="m22 14.79v1.86c0 4.1-1.25 5.35-5.35 5.35h-9.24c-0.89 0-1.33-1.08-0.7-1.71l2.82-2.82c0.07 0.1 0.15 0.19 0.23 0.28 0.70005 0.76 1.74 1.16 2.89 0.92 0.09-0.02 0.18-0.04 0.27-0.08 0.09-0.02 0.17-0.05 0.25-0.09 0.2-0.07 0.39-0.18 0.57-0.31 0.07-0.04 0.13-0.09 0.18-0.14 0.15-0.12 0.29-0.26 0.41-0.41 0.05-0.05 0.1-0.11 0.14-0.18 0.13-0.18 0.24-0.37 0.31-0.57 0.04-0.08 0.07-0.16 0.09-0.25 0.04-0.09 0.06-0.18 0.08-0.27 0.24-1.15-0.16-2.19-0.92-2.89-0.08-0.08-0.18-0.16-0.28-0.23l3.12-3.12c0.05-0.05 0.09-0.09 0.14-0.13002 0.4-0.33 0.91-0.49 1.42-0.45 0.09 0.01 0.19 0.02 0.28 0.04 0.17 0.03 0.34 0.07 0.5 0.11s0.31 0.09 0.46 0.14c0.29 0.11 0.54 0.24002 0.77 0.39002s0.42 0.33 0.6 0.54c0.09 0.11 0.18 0.23 0.25 0.36 0.07 0.11 0.13 0.23 0.19 0.36s0.11 0.27 0.16 0.41c0.06 0.17 0.11 0.36 0.15 0.56 0.04 0.14 0.06 0.29 0.09 0.45 0.02 0.15 0.04 0.31 0.06 0.48 0.04 0.42 0.06 0.89 0.06 1.4z"/>
</svg>
